!! 00000] TT[WS
!!!OTL: Diao xianxian
!!!ARE: Asia, China, Shanxi Linxian
!! Ethnic Group: Han
!! WII, 92 (2)
!!!SCT: J0538
!!!YEM: Copyright 1995, estate of Helmut Schaffrath.
**kern
*ICvox
*Ivox
*M2/4
*k[b-e-a-]
*E-:
{8.ff
16gg
8ff
8ee-
=1
8.gg
16ff
8gg
16ff
16ee-
=2
8.cc
16ee-
4ff}
=3
{8gg
8gg
8ff
16ee-
16ee-
=4
8ee-
16ee-
16cc
4b-
=5
8b-
8cc
8.ee-
16ff
=6
8ee-
16cc
16g
8.b-
16cc}
=7
{8ee-
8g
4f
=8
8ee-
8b-
4cc
=9
8e-
8f
8g
8b-
=10
8g
8f
4e-}
==
!!!AGN: Xiaodiao. Qingge, Sichun
!!!ONB: ESAC (Essen Associative Code) Database: CHINA
!!!AMT: simple duple
!!!AIN: vox
!!!EED: Helmut Schaffrath
!!!EEV: 1.0
*-
